copycat/places/scalable/folder-unlocked.svg

<svg clip-rule="evenodd" fill-rule="evenodd" stroke-linejoin="round" stroke-miterlimit="2" viewBox="0 0 48 48" xmlns="http://www.w3.org/2000/svg">
 <linearGradient id="a" x2="1" gradientTransform="matrix(0 -41.6338 41.6338 0 897.879 52.7218)" gradientUnits="userSpaceOnUse">
  <stop stop-color="#1075f6" offset="0"/>
  <stop stop-color="#12c5ff" offset="1"/>
 </linearGradient>
 <linearGradient id="b" x2="1" gradientTransform="matrix(0 13.9999 -16.5009 0 -718.435 .999812)" gradientUnits="userSpaceOnUse">
  <stop stop-color="#126c98" offset="0"/>
  <stop stop-color="#0b4f94" offset="1"/>
 </linearGradient>
 <path transform="scale(.75)" d="m61.122 15.88c0-2.762-2.239-5-5-5h-48.244c-2.761 0-5 2.238-5 5v32.246c0 2.761 2.239 5 5 5h48.244c2.761 0 5-2.239 5-5z" fill="#0083d5"/>
 <path transform="scale(.75)" d="m61.122 20.652c0-1.326-.527-2.598-1.465-3.536-.938-.937-2.209-1.464-3.535-1.464h-25.58c-1.232 0-2.42-.455-3.337-1.277-.768-.689-1.713-1.535-2.481-2.224-.917-.822-2.105-1.277-3.337-1.277h-13.509c-1.326 0-2.597.527-3.535 1.465-.938.937-1.465 2.209-1.465 3.535v32.252c0 2.761 2.239 5 5 5h48.244c2.761 0 5-2.239 5-5z" fill="url(#a)"/>
 <path transform="matrix(1.30917 0 0 1.31823 13.4965 14.0432)" d="m3.246 8h9.568v5.908h-9.568z" fill="#0d5795" fill-opacity=".73"/>
 <path transform="matrix(1.1972 0 0 1.1972 14.4224 15.3118)" d="m4 5.3v-.3c0-2.216 1.784-4 4-4s4 1.784 4 4v1.996c.53.002 1.038.213 1.412.588.377.376.588.886.588 1.418v3.991c0 .532-.211 1.043-.588 1.419-.376.376-.886.588-1.418.588h-7.988c-.532 0-1.042-.212-1.418-.588-.377-.376-.588-.887-.588-1.419v-3.991c0-.532.211-1.042.588-1.418.374-.375.882-.586 1.412-.588h6v-2.119c0-1.108-.892-2-2-2s-2 .892-2 2v.423zm9 3.702c0-.266-.106-.522-.295-.711-.188-.189-.444-.295-.711-.295h-7.988c-.267 0-.523.106-.711.295-.189.189-.295.445-.295.711v3.991c0 .267.106.523.295.712.188.188.444.295.711.295h7.988c.267 0 .523-.107.711-.295.189-.189.295-.445.295-.712z" fill="url(#b)"/>
</svg>

<?xml version="1.0" encoding="UTF-8" standalone="no"?>
<svg
   clip-rule="evenodd"
   fill-rule="evenodd"
   stroke-linejoin="round"
   stroke-miterlimit="2"
   viewBox="0 0 48 48"
   version="1.1"
   id="svg7"
   sodipodi:docname="kora_folder-unlocked.svg"
   inkscape:version="1.4.2 (ebf0e940d0, 2025-05-08)"
   xmlns:inkscape="http://www.inkscape.org/namespaces/inkscape"
   xmlns:sodipodi="http://sodipodi.sourceforge.net/DTD/sodipodi-0.dtd"
   xmlns="http://www.w3.org/2000/svg"
   xmlns:svg="http://www.w3.org/2000/svg">
  <defs
     id="defs7" />
  <sodipodi:namedview
     id="namedview7"
     pagecolor="#ffffff"
     bordercolor="#000000"
     borderopacity="0.25"
     inkscape:showpageshadow="2"
     inkscape:pageopacity="0.0"
     inkscape:pagecheckerboard="0"
     inkscape:deskcolor="#d1d1d1"
     inkscape:zoom="33.458333"
     inkscape:cx="25.165629"
     inkscape:cy="25.838107"
     inkscape:window-width="1920"
     inkscape:window-height="1012"
     inkscape:window-x="0"
     inkscape:window-y="0"
     inkscape:window-maximized="1"
     inkscape:current-layer="svg7" />
  <linearGradient
     id="a"
     x2="1"
     gradientTransform="matrix(0 -41.6338 41.6338 0 897.879 52.7218)"
     gradientUnits="userSpaceOnUse">
    <stop
       stop-color="#1075f6"
       offset="0"
       id="stop1" />
    <stop
       stop-color="#12c5ff"
       offset="1"
       id="stop2" />
  </linearGradient>
  <linearGradient
     id="b"
     x2="1"
     gradientTransform="matrix(0 13.9999 -16.5009 0 -718.435 .999812)"
     gradientUnits="userSpaceOnUse">
    <stop
       stop-color="#126c98"
       offset="0"
       id="stop3" />
    <stop
       stop-color="#0b4f94"
       offset="1"
       id="stop4" />
  </linearGradient>
  <path
     transform="scale(.75)"
     d="m61.122 15.88c0-2.762-2.239-5-5-5h-48.244c-2.761 0-5 2.238-5 5v32.246c0 2.761 2.239 5 5 5h48.244c2.761 0 5-2.239 5-5z"
     fill="#0083d5"
     id="path4" />
  <path
     transform="scale(.75)"
     d="m61.122 20.652c0-1.326-.527-2.598-1.465-3.536-.938-.937-2.209-1.464-3.535-1.464h-25.58c-1.232 0-2.42-.455-3.337-1.277-.768-.689-1.713-1.535-2.481-2.224-.917-.822-2.105-1.277-3.337-1.277h-13.509c-1.326 0-2.597.527-3.535 1.465-.938.937-1.465 2.209-1.465 3.535v32.252c0 2.761 2.239 5 5 5h48.244c2.761 0 5-2.239 5-5z"
     fill="url(#a)"
     id="path5" />
  <path
     transform="matrix(1.1972,0,0,1.1972,14.4224,15.3118)"
     d="M 4,5.3 V 5 C 4,2.784 5.784,1 8,1 c 2.216,0 4,1.784 4,4 v 1.996 c 0.53,0.002 1.038,0.213 1.412,0.588 C 13.789,7.96 14,8.47 14,9.002 v 3.991 c 0,0.532 -0.211,1.043 -0.588,1.419 C 13.036,14.788 12.526,15 11.994,15 H 4.006 C 3.474,15 2.964,14.788 2.588,14.412 2.211,14.036 2,13.525 2,12.993 V 9.002 C 2,8.47 2.211,7.96 2.588,7.584 2.962,7.209 3.47,6.998 4,6.996 h 6 V 4.877 c 0,-1.108 -0.892,-2 -2,-2 -1.108,0 -2,0.892 -2,2 V 5.3 Z"
     fill="url(#b)"
     id="path7"
     sodipodi:nodetypes="csssccsscsscsscccssscc" />
</svg>
